img/node-js-logo.svg

<svg width="31" height="31" viewBox="0 0 31 31" fill="none" xmlns="http://www.w3.org/2000/svg">
<path d="M16.242 2.65505C15.5766 2.28081 14.709 2.28249 14.043 2.65505C10.7074 4.49588 7.37172 6.33726 4.03547 8.17725C3.38628 8.51877 2.94842 9.21592 2.9554 9.9395V21.062C2.95072 21.7997 3.41115 22.5036 4.07709 22.8404C5.03536 23.3503 5.96638 23.9118 6.94198 24.3877C8.06892 24.9415 9.47885 25.0639 10.6196 24.4864C11.5455 24.0078 11.9568 22.9433 11.9556 21.965C11.9631 18.2943 11.9568 14.6235 11.9585 10.9528C11.9805 10.7896 11.858 10.6153 11.6801 10.6192C11.2538 10.6124 10.8269 10.6153 10.4007 10.6181C10.2396 10.6029 10.0824 10.7367 10.0946 10.8986C10.0889 14.5456 10.0957 18.1938 10.0911 21.8414C10.1004 22.346 9.75951 22.8309 9.27326 23.0013C8.1502 23.395 4.94468 21.3136 4.94468 21.3136C4.82704 21.2592 4.75234 21.1316 4.76387 21.0048C4.76387 17.3353 4.76444 13.6656 4.76387 9.9966C4.7477 9.84867 4.83887 9.71544 4.97471 9.65505C8.29938 7.82506 11.6223 5.99051 14.947 4.1594C15.0625 4.08233 15.2234 4.08256 15.3387 4.15996C18.6633 5.99051 21.9869 7.82339 25.3121 9.65345C25.4484 9.71375 25.5357 9.84922 25.5218 9.9966C25.5212 13.6656 25.5229 17.3353 25.5207 21.0043C25.5305 21.1342 25.4634 21.26 25.3422 21.317C22.0485 23.1371 18.7174 24.8984 15.4536 26.7714C15.3112 26.853 15.1499 26.9456 14.9903 26.8556C14.132 26.3808 13.2841 25.8876 12.4287 25.4083C12.3357 25.3502 12.2173 25.3253 12.1202 25.3903C11.7367 25.5924 11.3759 25.7561 10.9355 25.9304C10.3169 26.1753 10.4158 26.2754 10.9737 26.6005C11.9741 27.1666 12.9762 27.7305 13.9766 28.2973C14.6352 28.7083 15.5201 28.7375 16.1999 28.3577C19.536 26.5192 22.8712 24.6785 26.208 22.84C26.8722 22.5013 27.3349 21.8002 27.3302 21.0619V9.9395C27.3367 9.2306 26.9156 8.54588 26.2859 8.19931C22.9387 6.34951 19.5899 4.50373 16.242 2.65505Z" fill="#8CC84B"/>
<path d="M21.2758 11.0058C19.9664 10.3053 18.4087 10.268 16.9536 10.3596C15.9024 10.4635 14.7968 10.7535 14.0309 11.5071C13.2454 12.2646 13.0744 13.4878 13.4475 14.4767C13.7149 15.1755 14.3879 15.6299 15.0839 15.8703C15.9805 16.1868 16.9221 16.2847 17.864 16.3826C18.7231 16.4718 19.5825 16.5612 20.4083 16.8164C20.7456 16.9282 21.1384 17.0992 21.2417 17.4662C21.3371 17.9008 21.2325 18.4061 20.8796 18.708C19.7588 19.5952 16.6408 19.4592 15.5334 18.761C15.0856 18.4635 14.8927 17.9369 14.8142 17.4351C14.8055 17.2787 14.6796 17.1353 14.5098 17.1472C14.0846 17.1421 13.6595 17.1432 13.2343 17.1466C13.086 17.1342 12.9318 17.2397 12.9236 17.3911C12.8363 19.6896 14.9472 20.6916 16.9277 20.9122C18.0592 21.02 19.2155 21.0138 20.3297 20.771C21.1673 20.5803 22.0071 20.2291 22.5836 19.584C23.2946 18.8 23.4344 17.6327 23.1156 16.6561C22.8718 15.9274 22.1752 15.46 21.463 15.2195C20.4946 14.8874 19.3469 14.7089 18.4698 14.6254C17.1949 14.504 15.6799 14.5536 15.319 13.7158C15.1751 13.2772 15.2976 12.7325 15.7007 12.4627C16.7673 11.7392 18.9381 11.8353 20.0426 12.3758C20.5498 12.6297 20.8437 13.1514 20.965 13.678C20.9875 13.8327 21.0916 13.9941 21.2707 13.9873C21.6929 13.9958 22.1152 13.9896 22.5373 13.9902C22.6824 14.0003 22.8412 13.9184 22.8695 13.7699C22.8516 12.6693 22.2896 11.5426 21.2758 11.0058Z" fill="#8CC84B"/>
</svg>

<svg xmlns="http://www.w3.org/2000/svg" width="31" height="31" fill="none"><path fill="#8CC84B" d="M16.242 2.655a2.298 2.298 0 0 0-2.199 0c-3.336 1.84-6.671 3.682-10.008 5.522-.649.342-1.087 1.039-1.08 1.763v11.122c-.004.738.456 1.442 1.122 1.778.958.51 1.89 1.072 2.865 1.548 1.127.553 2.537.676 3.678.098.926-.478 1.337-1.543 1.336-2.521.007-3.67 0-7.341.003-11.012.021-.163-.101-.338-.279-.334-.426-.007-.853-.004-1.28 0-.16-.016-.318.118-.305.28-.006 3.647 0 7.295-.004 10.942.01.505-.331.99-.818 1.16-1.123.394-4.328-1.687-4.328-1.687a.316.316 0 0 1-.181-.31V9.998a.34.34 0 0 1 .21-.342c3.325-1.83 6.648-3.664 9.973-5.496a.36.36 0 0 1 .392.001c3.324 1.83 6.648 3.663 9.973 5.493.136.06.224.196.21.344l-.001 11.007a.316.316 0 0 1-.179.313c-3.293 1.82-6.625 3.581-9.888 5.454-.143.082-.304.175-.464.085-.858-.475-1.706-.968-2.561-1.448-.093-.058-.212-.083-.309-.018-.383.202-.744.366-1.184.54-.62.245-.52.345.038.67 1 .567 2.002 1.13 3.003 1.697.658.411 1.543.44 2.223.06l10.008-5.517c.664-.339 1.127-1.04 1.122-1.778V9.939c.007-.708-.414-1.393-1.044-1.74-3.347-1.85-6.696-3.695-10.044-5.544Z"/><path fill="#8CC84B" d="M21.276 11.006c-1.31-.7-2.867-.738-4.322-.646-1.052.104-2.157.394-2.923 1.147-.786.758-.957 1.98-.584 2.97.268.698.94 1.153 1.637 1.393.896.317 1.838.415 2.78.513.86.089 1.718.178 2.544.433.338.112.73.283.834.65.095.435-.01.94-.362 1.242-1.121.887-4.24.751-5.347.053-.447-.297-.64-.824-.719-1.326-.008-.156-.134-.3-.304-.288-.425-.005-.85-.004-1.276 0-.148-.013-.302.093-.31.244-.088 2.299 2.023 3.3 4.004 3.521 1.131.108 2.287.102 3.402-.141.837-.19 1.677-.542 2.254-1.187.71-.784.85-1.951.532-2.928-.244-.729-.94-1.196-1.653-1.436-.968-.333-2.116-.511-2.993-.595-1.275-.121-2.79-.071-3.151-.91-.144-.438-.021-.982.382-1.252 1.066-.724 3.237-.628 4.342-.087.507.254.8.775.922 1.302.023.155.127.316.306.31.422.008.844.002 1.266.002.145.01.304-.072.332-.22-.017-1.1-.58-2.227-1.593-2.764Z"/></svg>
